SVG_Azure_All/IoT Hub File Upload.svg

<?xml version="1.0" encoding="UTF-8" standalone="no"?>
<!-- Generated by Microsoft Visio, SVG Export IoT Hub File Upload.svg Page-1 -->

<svg
   xmlns:dc="http://purl.org/dc/elements/1.1/"
   xmlns:cc="http://creativecommons.org/ns#"
   xmlns:rdf="http://www.w3.org/1999/02/22-rdf-syntax-ns#"
   xmlns:svg="http://www.w3.org/2000/svg"
   xmlns="http://www.w3.org/2000/svg"
   xmlns:sodipodi="http://sodipodi.sourceforge.net/DTD/sodipodi-0.dtd"
   xmlns:inkscape="http://www.inkscape.org/namespaces/inkscape"
   width="0.70868373in"
   height="0.78743744in"
   viewBox="0 0 51.025262 56.695806"
   xml:space="preserve"
   class="st6"
   version="1.1"
   id="svg70"
   sodipodi:docname="IoT Hub File Upload.svg"
   style="font-size:12px;overflow:visible;color-interpolation-filters:sRGB;fill:none;fill-rule:evenodd;stroke-linecap:square;stroke-miterlimit:3"
   inkscape:version="0.92.5 (2060ec1f9f, 2020-04-08)"><metadata
   id="metadata74"><rdf:RDF><cc:Work
       rdf:about=""><dc:format>image/svg+xml</dc:format><dc:type
         rdf:resource="http://purl.org/dc/dcmitype/StillImage" /></cc:Work></rdf:RDF></metadata><sodipodi:namedview
   pagecolor="#ffffff"
   bordercolor="#666666"
   borderopacity="1"
   objecttolerance="10"
   gridtolerance="10"
   guidetolerance="10"
   inkscape:pageopacity="0"
   inkscape:pageshadow="2"
   inkscape:window-width="640"
   inkscape:window-height="480"
   id="namedview72"
   showgrid="false"
   inkscape:zoom="1.4193119"
   inkscape:cx="34.015815"
   inkscape:cy="37.786203"
   inkscape:window-x="0"
   inkscape:window-y="0"
   inkscape:window-maximized="0"
   inkscape:current-layer="svg70" />
	<style
   type="text/css"
   id="style2">
	<![CDATA[
		.st1 {fill:#5ea0ef;stroke:none;stroke-linecap:butt;stroke-width:34}
		.st2 {fill:#0078d4;stroke:none;stroke-linecap:butt;stroke-width:34}
		.st3 {fill:#83b9f9;stroke:none;stroke-linecap:butt;stroke-width:34}
		.st4 {fill:#ffffff;stroke:none;stroke-linecap:butt;stroke-width:34}
		.st5 {fill:url(#grad0-16);stroke:none;stroke-linecap:butt;stroke-width:34}
		.st6 {fill:none;fill-rule:evenodd;font-size:12px;overflow:visible;stroke-linecap:square;stroke-miterlimit:3}
	]]>
	</style>

	<defs
   id="Patterns_And_Gradients">
		<linearGradient
   id="grad0-16"
   x1="-9.4390389e-06"
   y1="70.127478"
   x2="41.49471"
   y2="70.127478"
   gradientTransform="scale(0.89505405,1.117251)"
   gradientUnits="userSpaceOnUse">
			<stop
   offset="0"
   stop-color="#0078d4"
   stop-opacity="1"
   id="stop4" />
			<stop
   offset="0.815"
   stop-color="#5ea0ef"
   stop-opacity="1"
   id="stop6" />
		</linearGradient>
	</defs>
	<g
   id="g68"
   transform="translate(-34.000286,-33.9985)">
		<title
   id="title10">Page-1</title>
		<g
   id="group3865-1"
   transform="translate(34,-34.0157)">
			<title
   id="title12">IoT Hub File Upload</title>
			<g
   id="group3866-2">
				<title
   id="title14">MsPortalFx.base.images-23</title>
				<g
   id="shape3867-3"
   transform="translate(1.03222,-18.8378)">
					<title
   id="title16">Sheet.3867</title>
					<rect
   x="0"
   y="87.905502"
   width="31.2446"
   height="36.803101"
   class="st1"
   id="rect18"
   style="fill:#5ea0ef;stroke:none;stroke-width:34;stroke-linecap:butt" />
				</g>
				<g
   id="shape3868-5"
   transform="translate(0,-17.7858)">
					<title
   id="title21">Sheet.3868</title>
					<path
   d="M 32.28,124.71 H 1.03 A 1.03222,1.05197 0 0 1 0,123.66 V 86.85 A 1.02913,1.04882 0 0 1 1.03,85.8 h 31.25 a 1.02913,1.04882 0 0 1 1.03,1.05 v 36.81 a 1.03222,1.05197 0 0 1 -1.03,1.05 z M 2.06,122.6 H 31.24 V 87.91 H 2.06 Z"
   class="st2"
   id="path23"
   inkscape:connector-curvature="0"
   style="fill:#0078d4;stroke:none;stroke-width:34;stroke-linecap:butt" />
				</g>
				<g
   id="shape3869-7"
   transform="translate(7.003,-13.8488)">
					<title
   id="title26">Sheet.3869</title>
					<rect
   x="0"
   y="87.905502"
   width="31.2446"
   height="36.803101"
   class="st3"
   id="rect28"
   style="fill:#83b9f9;stroke:none;stroke-width:34;stroke-linecap:butt" />
				</g>
				<g
   id="shape3870-9"
   transform="translate(5.97078,-12.7969)">
					<title
   id="title31">Sheet.3870</title>
					<path
   d="M 32.28,124.71 H 1.03 A 1.03531,1.05512 0 0 1 0,123.66 V 86.85 A 1.03531,1.05512 0 0 1 1.03,85.8 h 31.25 a 1.03222,1.05197 0 0 1 1.03,1.05 v 36.8 a 1.03222,1.05197 0 0 1 -1.03,1.06 z M 2.06,122.6 H 31.25 V 87.91 H 2.06 Z"
   class="st2"
   id="path33"
   inkscape:connector-curvature="0"
   style="fill:#0078d4;stroke:none;stroke-width:34;stroke-linecap:butt" />
				</g>
				<g
   id="shape3871-11"
   transform="translate(14.1513,-0.314961)">
					<title
   id="title36">Sheet.3871</title>
					<path
   d="M 20.89,79.01 H 1.53 A 1.54523,1.5748 -180 0 0 0,80.58 v 42.55 a 1.54523,1.5748 -180 0 0 1.53,1.58 h 33.55 a 1.54523,1.5748 -180 0 0 1.53,-1.58 V 94.96 A 1.54523,1.5748 -180 0 0 35.08,93.38 H 23.95 A 1.54523,1.5748 0 0 1 22.42,91.82 V 80.57 a 1.54523,1.5748 -180 0 0 -1.53,-1.56 z"
   class="st4"
   id="path38"
   inkscape:connector-curvature="0"
   style="fill:#ffffff;stroke:none;stroke-width:34;stroke-linecap:butt" />
				</g>
				<g
   id="shape3872-13"
   transform="translate(13.8855)">
					<title
   id="title41">Sheet.3872</title>
					<path
   d="m 20.45,80.69 v 10.68 a 3.85072,3.92441 -180 0 0 3.85,3.92 h 10.56 v 27.09 H 2.29 V 80.69 Z m 0.74,-2.34 H 1.55 A 1.54523,1.5748 -180 0 0 0,79.92 v 43.21 a 1.54523,1.5748 -180 0 0 1.55,1.58 h 34.04 a 1.54523,1.5748 -180 0 0 1.55,-1.58 V 94.54 A 1.54523,1.5748 -180 0 0 35.59,92.96 H 24.3 A 1.54523,1.5748 0 0 1 22.76,91.39 V 79.93 a 1.54523,1.5748 -180 0 0 -1.55,-1.57 z"
   class="st5"
   id="path43"
   inkscape:connector-curvature="0"
   style="fill:url(#grad0-16);stroke:none;stroke-width:34;stroke-linecap:butt" />
				</g>
				<g
   id="shape3873-17"
   transform="translate(36.0905,-31.4362)">
					<title
   id="title46">Sheet.3873</title>
					<path
   d="M 14.35,124.71 0,110.13 v 11.88 a 2.63308,2.68346 -180 0 0 2.61,2.7 z"
   class="st2"
   id="path48"
   inkscape:connector-curvature="0"
   style="fill:#0078d4;stroke:none;stroke-width:34;stroke-linecap:butt" />
				</g>
				<g
   id="shape3874-19"
   transform="translate(19.8192,-21.7984)">
					<title
   id="title51">Sheet.3874</title>
					<path
   d="m 0,123.16 a 1.52364,1.55279 -180 0 0 1.52,1.55 h 22.23 a 1.52364,1.55279 -180 0 0 1.52,-1.55 v -0.35 a 1.52364,1.55279 -180 0 0 -1.52,-1.56 H 1.52 A 1.52364,1.55279 -180 0 0 0,122.81 Z"
   class="st1"
   id="path53"
   inkscape:connector-curvature="0"
   style="fill:#5ea0ef;stroke:none;stroke-width:34;stroke-linecap:butt" />
				</g>
				<g
   id="shape3875-21"
   transform="translate(19.8192,-15.6063)">
					<title
   id="title56">Sheet.3875</title>
					<path
   d="m 0,123.16 a 1.52364,1.55279 -180 0 0 1.52,1.55 h 22.23 a 1.52364,1.55279 -180 0 0 1.52,-1.55 v -0.35 a 1.52364,1.55279 -180 0 0 -1.52,-1.56 H 1.52 A 1.52364,1.55279 -180 0 0 0,122.81 Z"
   class="st1"
   id="path58"
   inkscape:connector-curvature="0"
   style="fill:#5ea0ef;stroke:none;stroke-width:34;stroke-linecap:butt" />
				</g>
				<g
   id="shape3876-23"
   transform="translate(19.8192,-9.41732)">
					<title
   id="title61">Sheet.3876</title>
					<path
   d="m 0,123.16 a 1.52364,1.55279 -180 0 0 1.52,1.55 H 14.4 a 1.52364,1.55279 -180 0 0 1.53,-1.55 v -0.35 A 1.52364,1.55279 -180 0 0 14.4,121.25 H 1.52 A 1.52364,1.55279 -180 0 0 0,122.81 Z"
   class="st1"
   id="path63"
   inkscape:connector-curvature="0"
   style="fill:#5ea0ef;stroke:none;stroke-width:34;stroke-linecap:butt" />
				</g>
			</g>
		</g>
	</g>
</svg>

<?xml version="1.0" encoding="UTF-8" standalone="no"?>
<!DOCTYPE svg PUBLIC "-//W3C//DTD SVG 1.1//EN" "http://www.w3.org/Graphics/SVG/1.1/DTD/svg11.dtd">
<!-- Generated by Microsoft Visio, SVG Export IoT Hub File Upload.svg Page-1 -->
<svg xmlns="http://www.w3.org/2000/svg" xmlns:xlink="http://www.w3.org/1999/xlink" xmlns:ev="http://www.w3.org/2001/xml-events"
		width="1.65311in" height="1.73206in" viewBox="0 0 119.024 124.709" xml:space="preserve" color-interpolation-filters="sRGB"
		class="st6">
	<style type="text/css">
	<![CDATA[
		.st1 {fill:#5ea0ef;stroke:none;stroke-linecap:butt;stroke-width:34}
		.st2 {fill:#0078d4;stroke:none;stroke-linecap:butt;stroke-width:34}
		.st3 {fill:#83b9f9;stroke:none;stroke-linecap:butt;stroke-width:34}
		.st4 {fill:#ffffff;stroke:none;stroke-linecap:butt;stroke-width:34}
		.st5 {fill:url(#grad0-16);stroke:none;stroke-linecap:butt;stroke-width:34}
		.st6 {fill:none;fill-rule:evenodd;font-size:12px;overflow:visible;stroke-linecap:square;stroke-miterlimit:3}
	]]>
	</style>

	<defs id="Patterns_And_Gradients">
		<linearGradient id="grad0-16" x1="0" y1="0" x2="1" y2="0" gradientTransform="rotate(-90 0.5 0.5)">
			<stop offset="0" stop-color="#0078d4" stop-opacity="1"/>
			<stop offset="0.815" stop-color="#5ea0ef" stop-opacity="1"/>
		</linearGradient>
	</defs>
	<g>
		<title>Page-1</title>
		<g id="group3781-1" transform="translate(34,-34.0157)">
			<title>IoT Hub File Upload</title>
			<g id="group3782-2">
				<title>MsPortalFx.base.images-23</title>
				<g id="shape3783-3" transform="translate(1.03222,-18.8378)">
					<title>Sheet.3783</title>
					<rect x="0" y="87.9055" width="31.2446" height="36.8031" class="st1"/>
				</g>
				<g id="shape3784-5" transform="translate(2.51799E-13,-17.7858)">
					<title>Sheet.3784</title>
					<path d="M32.28 124.71 L1.03 124.71 A1.03222 1.05197 0 0 1 0 123.66 L0 86.85 A1.02913 1.04882 0 0 1 1.03 85.8
								 L32.28 85.8 A1.02913 1.04882 0 0 1 33.31 86.85 L33.31 123.66 A1.03222 1.05197 0 0 1 32.28 124.71
								 ZM2.06 122.6 L31.24 122.6 L31.24 87.91 L2.06 87.91 L2.06 122.6 Z" class="st2"/>
				</g>
				<g id="shape3785-7" transform="translate(7.003,-13.8488)">
					<title>Sheet.3785</title>
					<rect x="0" y="87.9055" width="31.2446" height="36.8031" class="st3"/>
				</g>
				<g id="shape3786-9" transform="translate(5.97078,-12.7969)">
					<title>Sheet.3786</title>
					<path d="M32.28 124.71 L1.03 124.71 A1.03531 1.05512 0 0 1 0 123.66 L0 86.85 A1.03531 1.05512 0 0 1 1.03 85.8
								 L32.28 85.8 A1.03222 1.05197 0 0 1 33.31 86.85 L33.31 123.65 A1.03222 1.05197 0 0 1 32.28 124.71
								 ZM2.06 122.6 L31.25 122.6 L31.25 87.91 L2.06 87.91 L2.06 122.6 Z" class="st2"/>
				</g>
				<g id="shape3787-11" transform="translate(14.1513,-0.314961)">
					<title>Sheet.3787</title>
					<path d="M20.89 79.01 L1.53 79.01 A1.54523 1.5748 -180 0 0 0 80.58 L0 123.13 A1.54523 1.5748 -180 0 0 1.53 124.71
								 L35.08 124.71 A1.54523 1.5748 -180 0 0 36.61 123.13 L36.61 94.96 A1.54523 1.5748 -180 0 0 35.08
								 93.38 L23.95 93.38 A1.54523 1.5748 0 0 1 22.42 91.82 L22.42 80.57 A1.54523 1.5748 -180 0 0 20.89
								 79.01 Z" class="st4"/>
				</g>
				<g id="shape3788-13" transform="translate(13.8855,1.42109E-14)">
					<title>Sheet.3788</title>
					<path d="M20.45 80.69 L20.45 91.37 A3.85072 3.92441 -180 0 0 24.3 95.29 L34.86 95.29 L34.86 122.38 L2.29 122.38
								 L2.29 80.69 L20.45 80.69 ZM21.19 78.35 L1.55 78.35 A1.54523 1.5748 -180 0 0 0 79.92 L0 123.13 A1.54523
								 1.5748 -180 0 0 1.55 124.71 L35.59 124.71 A1.54523 1.5748 -180 0 0 37.14 123.13 L37.14 94.54 A1.54523
								 1.5748 -180 0 0 35.59 92.96 L24.3 92.96 A1.54523 1.5748 0 0 1 22.76 91.39 L22.76 79.93 A1.54523
								 1.5748 -180 0 0 21.21 78.36 L21.19 78.35 Z" class="st5"/>
				</g>
				<g id="shape3789-17" transform="translate(36.0905,-31.4362)">
					<title>Sheet.3789</title>
					<path d="M14.35 124.71 L0 110.13 L0 122.01 A2.63308 2.68346 -180 0 0 2.61 124.71 L14.35 124.71 Z" class="st2"/>
				</g>
				<g id="shape3790-19" transform="translate(19.8192,-21.7984)">
					<title>Sheet.3790</title>
					<path d="M0 123.16 A1.52364 1.55279 -180 0 0 1.52 124.71 L23.75 124.71 A1.52364 1.55279 -180 0 0 25.27 123.16
								 L25.27 122.81 A1.52364 1.55279 -180 0 0 23.75 121.25 L1.52 121.25 A1.52364 1.55279 -180 0 0 0 122.81
								 L0 123.16 Z" class="st1"/>
				</g>
				<g id="shape3791-21" transform="translate(19.8192,-15.6063)">
					<title>Sheet.3791</title>
					<path d="M0 123.16 A1.52364 1.55279 -180 0 0 1.52 124.71 L23.75 124.71 A1.52364 1.55279 -180 0 0 25.27 123.16
								 L25.27 122.81 A1.52364 1.55279 -180 0 0 23.75 121.25 L1.52 121.25 A1.52364 1.55279 -180 0 0 0 122.81
								 L0 123.16 Z" class="st1"/>
				</g>
				<g id="shape3792-23" transform="translate(19.8192,-9.41732)">
					<title>Sheet.3792</title>
					<path d="M0 123.16 A1.52364 1.55279 -180 0 0 1.52 124.71 L14.4 124.71 A1.52364 1.55279 -180 0 0 15.93 123.16
								 L15.93 122.81 A1.52364 1.55279 -180 0 0 14.4 121.25 L1.52 121.25 A1.52364 1.55279 -180 0 0 -0 122.81
								 L0 123.16 Z" class="st1"/>
				</g>
			</g>
		</g>
	</g>
</svg>
